flaticon/delivery/delivery.svg

<svg xmlns="http://www.w3.org/2000/svg" width="32" height="32" viewBox="0 0 24 24">
    <path d="M 23.777344 12.519531 C 23.054688 11.558594 22.335938 11.558594 20.574219 12.480469 L 18.8125 13.566406 L 18.8125 4.195312 C 18.8125 3.554688 18.292969 2.992188 17.613281 2.992188 L 14.007812 2.992188 L 14.007812 2.59375 C 14.007812 2.351562 13.847656 2.195312 13.609375 2.195312 L 9.605469 2.195312 C 9.367188 2.195312 9.207031 2.351562 9.207031 2.59375 L 9.207031 2.992188 L 5.605469 2.992188 C 4.964844 2.992188 4.402344 3.515625 4.402344 4.195312 L 4.402344 11.398438 C 3.777344 11.652344 3.210938 11.976562 2.800781 12.238281 L 2.800781 11.398438 L 0 11.398438 L 0 21.808594 L 2.800781 21.808594 L 2.800781 20.605469 L 8.003906 20.605469 C 8.804688 20.605469 9.648438 20.527344 10.445312 20.484375 L 15.652344 19.683594 C 15.851562 19.683594 16.050781 19.644531 16.210938 19.605469 C 16.691406 19.523438 17.132812 19.285156 17.53125 18.925781 L 23.574219 14.121094 C 24.054688 13.722656 24.136719 13 23.777344 12.519531 Z M 10.007812 2.992188 L 13.207031 2.992188 L 13.207031 6.15625 L 11.847656 5.074219 C 11.726562 4.957031 11.527344 4.957031 11.367188 5.074219 L 10.007812 6.15625 Z M 5.203125 4.195312 C 5.203125 3.996094 5.363281 3.792969 5.605469 3.792969 L 9.207031 3.792969 L 9.207031 6.234375 C 9.207031 6.515625 9.367188 6.796875 9.648438 6.917969 C 9.722656 6.953125 9.835938 6.992188 9.953125 6.996094 C 10.125 7.007812 10.292969 6.964844 10.445312 6.835938 L 11.609375 5.914062 L 12.6875 6.835938 C 12.84375 6.941406 13.019531 6.992188 13.199219 6.984375 C 13.320312 6.992188 13.445312 6.96875 13.570312 6.917969 C 13.847656 6.796875 14.007812 6.515625 14.007812 6.234375 L 14.007812 3.792969 L 17.53125 3.792969 C 17.730469 3.792969 17.933594 3.953125 17.933594 4.195312 L 17.933594 14.082031 L 17.089844 14.601562 C 16.617188 14.878906 15.558594 14.960938 14.570312 14.960938 C 14.769531 14.601562 14.691406 14.160156 14.328125 13.640625 C 13.6875 12.71875 12.609375 12.160156 11.449219 12.160156 L 9.886719 12.160156 C 9.046875 12.160156 8.246094 11.921875 7.605469 11.441406 C 7.238281 11.164062 6.816406 11.035156 6.378906 11.007812 C 6.308594 11.003906 6.238281 11 6.164062 11 C 5.882812 11 5.5625 11.039062 5.203125 11.121094 Z M 2 21.007812 L 0.800781 21.007812 L 0.800781 12.199219 L 2 12.199219 Z M 23.09375 13.5625 L 17.011719 18.285156 L 16.972656 18.324219 C 16.730469 18.605469 16.410156 18.765625 16.050781 18.804688 C 15.890625 18.84375 15.769531 18.84375 15.609375 18.84375 L 10.328125 19.644531 C 9.566406 19.765625 8.765625 19.804688 8.003906 19.804688 L 2.800781 19.804688 L 2.800781 13.199219 C 3.265625 12.871094 4.027344 12.402344 4.820312 12.105469 C 4.867188 12.105469 4.914062 12.097656 4.964844 12.078125 C 5.925781 11.761719 6.644531 11.761719 7.125 12.121094 C 7.886719 12.679688 8.847656 13 9.886719 13 L 11.449219 13 C 12.367188 13 13.207031 13.402344 13.6875 14.160156 C 13.886719 14.398438 13.925781 14.632812 13.890625 14.714844 C 13.890625 14.71875 13.890625 14.71875 13.890625 14.722656 C 13.851562 14.785156 13.78125 14.832031 13.683594 14.875 C 13.683594 14.875 13.679688 14.875 13.679688 14.878906 C 13.667969 14.882812 13.652344 14.886719 13.640625 14.890625 C 13.628906 14.894531 13.617188 14.902344 13.605469 14.90625 C 13.601562 14.90625 13.597656 14.90625 13.59375 14.910156 C 13.53125 14.929688 13.457031 14.949219 13.375 14.964844 C 13.375 14.964844 13.375 14.964844 13.371094 14.964844 C 13.347656 14.972656 13.316406 14.976562 13.289062 14.980469 C 13.285156 14.980469 13.277344 14.984375 13.273438 14.984375 C 13.25 14.988281 13.222656 14.992188 13.195312 14.996094 C 13.191406 14.996094 13.183594 14.996094 13.175781 15 C 13.046875 15.019531 12.894531 15.03125 12.730469 15.042969 C 12.644531 15.042969 12.5625 15.042969 12.488281 15.042969 C 12.429688 15.042969 12.375 15.042969 12.328125 15.042969 L 8.605469 15.042969 C 7.363281 15.042969 6.605469 15.640625 6.605469 16.644531 C 6.605469 16.882812 6.765625 17.042969 7.003906 17.042969 C 7.246094 17.042969 7.40625 16.882812 7.40625 16.644531 C 7.40625 16.441406 7.40625 15.84375 8.605469 15.84375 L 12.289062 15.84375 C 12.410156 15.84375 12.570312 15.84375 12.808594 15.84375 C 12.847656 15.84375 12.929688 15.84375 13.007812 15.84375 C 14.890625 15.882812 16.652344 15.84375 17.570312 15.363281 L 21.015625 13.242188 C 22.695312 12.398438 22.855469 12.601562 23.175781 13.082031 C 23.253906 13.199219 23.253906 13.441406 23.09375 13.5625 Z M 23.09375 13.5625"/>
</svg>

<svg xmlns="http://www.w3.org/2000/svg" width="32" height="32" viewBox="0 0 24 24">
    <path d="M23.777 12.52c-.722-.961-1.441-.961-3.203-.04l-1.762 1.086v-9.37c0-.641-.519-1.204-1.199-1.204h-3.605v-.398c0-.242-.16-.399-.399-.399H9.605c-.238 0-.398.157-.398.399v.398H5.605c-.64 0-1.203.524-1.203 1.203v7.203c-.625.254-1.191.579-1.601.84v-.84H0v10.41h2.8v-1.203h5.204c.8 0 1.644-.078 2.441-.12l5.207-.801c.2 0 .399-.04.559-.079.48-.082.922-.32 1.32-.68l6.043-4.804c.48-.398.563-1.121.203-1.601zm-13.77-9.528h3.2v3.164l-1.36-1.082c-.12-.117-.32-.117-.48 0l-1.36 1.082zM5.204 4.195c0-.199.16-.402.402-.402h3.602v2.441c0 .282.16.563.441.684a.808.808 0 0 0 .305.078.664.664 0 0 0 .492-.16l1.164-.922 1.079.922a.842.842 0 0 0 .511.148.746.746 0 0 0 .809-.75V3.793h3.523c.2 0 .403.16.403.402v9.887l-.844.52c-.473.277-1.531.359-2.52.359.2-.36.121-.8-.242-1.32a3.502 3.502 0 0 0-2.879-1.48H9.887c-.84 0-1.64-.24-2.282-.72a2.225 2.225 0 0 0-1.226-.433A3.808 3.808 0 0 0 6.164 11c-.281 0-.601.04-.96.121zM2 21.008H.8v-8.809H2zm21.094-7.445l-6.082 4.722-.04.04a1.39 1.39 0 0 1-.921.48c-.16.039-.281.039-.442.039l-5.28.8c-.763.122-1.563.16-2.325.16H2.8V13.2c.465-.328 1.226-.797 2.02-1.094a.394.394 0 0 0 .144-.027c.96-.316 1.68-.316 2.16.043A4.655 4.655 0 0 0 9.887 13h1.562c.918 0 1.758.402 2.239 1.16.199.238.238.473.203.555v.008a.441.441 0 0 1-.207.152s-.004 0-.004.004l-.04.012c-.011.004-.023.011-.035.015-.003 0-.007 0-.011.004-.063.02-.137.04-.219.055h-.004c-.023.008-.055.012-.082.015l-.016.004-.078.012c-.004 0-.011 0-.02.004-.128.02-.28.031-.445.043H8.605c-1.242 0-2 .598-2 1.602 0 .238.16.398.399.398.242 0 .402-.16.402-.398 0-.204 0-.801 1.2-.801H13.007c1.883.039 3.644 0 4.562-.48l3.446-2.122c1.68-.844 1.84-.64 2.16-.16.078.117.078.36-.082.48zm0 0"/>
</svg>
